assets/icon-correct.svg

<svg width="27" height="27" viewBox="0 0 27 27" fill="none" xmlns="http://www.w3.org/2000/svg">
<path d="M3.20176 3.03994H2.77172V3.46998V23.5387V23.9687H3.20176H23.2704H23.7005V23.5387V3.46998V3.03994H23.2704H3.20176ZM12.111 15.4884L19.9148 7.68327L21.3348 9.10222L11.8069 18.6301L6.33286 13.156L7.75162 11.7372L11.5028 15.4884L11.807 15.7926L12.111 15.4884ZM1.76829 1.03307H24.7039C24.97 1.03307 25.2253 1.13879 25.4135 1.32697C25.6016 1.51515 25.7074 1.77038 25.7074 2.0365V24.9721C25.7074 25.2383 25.6016 25.4935 25.4135 25.6817C25.2253 25.8699 24.97 25.9756 24.7039 25.9756H1.76829C1.50216 25.9756 1.24693 25.8699 1.05875 25.6817C0.87057 25.4935 0.764852 25.2383 0.764852 24.9721V2.0365C0.764852 1.77038 0.87057 1.51515 1.05875 1.32697C1.24693 1.13879 1.50216 1.03307 1.76829 1.03307Z" stroke="black" stroke-width="0.860086"/>
</svg>

<svg width="27" height="27" fill="none" xmlns="http://www.w3.org/2000/svg"><path d="M3.202 3.04h-.43v20.929H23.7V3.04H3.203Zm8.909 12.448 7.804-7.805 1.42 1.42-9.528 9.527-5.474-5.474 1.419-1.419 3.75 3.751.305.305.304-.305ZM1.768 1.033h22.936a1.004 1.004 0 0 1 1.003 1.004v22.935a1.004 1.004 0 0 1-1.003 1.004H1.768a1.003 1.003 0 0 1-1.003-1.004V2.036a1.003 1.003 0 0 1 1.003-1.003Z" stroke="#000" stroke-width=".86"/></svg>
